docs/.gitbook/assets/icon-bell-16@dark.svg

<svg width="32" height="32" viewBox="0 0 16 16" fill="none" xmlns="http://www.w3.org/2000/svg">
<rect x="0" y="0" width="16" height="16" fill="#181c1f"/>
<path fill-rule="evenodd" clip-rule="evenodd" d="M2.00001 7C2.00001 3.68629 4.6863 1 8.00001 1C11.3137 1 14 3.68629 14 7V7.88722L14.9668 11.0294C15.0368 11.2569 14.9947 11.5041 14.8533 11.6956C14.7119 11.887 14.488 12 14.25 12H11C11 12.2281 10.9744 12.4511 10.9257 12.666C10.6225 14.0021 9.42868 15 8.00001 15C6.57133 15 5.37753 14.0021 5.07435 12.666C5.02559 12.4511 5.00001 12.2281 5.00001 12H1.75001C1.512 12 1.28812 11.887 1.14671 11.6956C1.00531 11.5041 0.963177 11.2569 1.03317 11.0294L2.00001 7.88722V7ZM6.50001 12C6.50001 12.1156 6.51295 12.2273 6.53717 12.334C6.68872 13.0019 7.28709 13.5 8.00001 13.5C8.71292 13.5 9.3113 13.0019 9.46285 12.334C9.48706 12.2273 9.50001 12.1156 9.50001 12H6.50001ZM8.00001 2.5C5.51472 2.5 3.50001 4.51472 3.50001 7V8C3.50001 8.07476 3.48883 8.14911 3.46684 8.22056L2.76548 10.5H5.75001H10.25H13.2345L12.5332 8.22056C12.5112 8.14911 12.5 8.07476 12.5 8V7C12.5 4.51472 10.4853 2.5 8.00001 2.5Z" fill="#fff"/>
</svg>

<svg xmlns="http://www.w3.org/2000/svg" width="32" height="32" fill="none" viewBox="0 0 16 16"><path fill="#181c1f" d="M0 0h16v16H0z"/><path fill="#fff" fill-rule="evenodd" d="M2 7a6 6 0 1 1 12 0v.887l.967 3.142a.75.75 0 0 1-.717.971H11q-.001.343-.074.666A3 3 0 0 1 5 12H1.75a.75.75 0 0 1-.717-.97L2 7.886zm4.5 5q0 .174.037.334A1.5 1.5 0 0 0 9.5 12zM8 2.5A4.5 4.5 0 0 0 3.5 7v1a.8.8 0 0 1-.033.22l-.702 2.28h10.47l-.702-2.28A.8.8 0 0 1 12.5 8V7A4.5 4.5 0 0 0 8 2.5" clip-rule="evenodd"/></svg>
